24x24/apps/distributor-logo-openmandriva.svg

<svg xmlns="http://www.w3.org/2000/svg" width="24" height="24"><g transform="translate(1 1)"><circle style="opacity:.2" cx="11" cy="11.5" r="10"/><circle style="fill:#248afd" cx="11" cy="11" r="10"/><path style="opacity:.2;fill:#f4f4f7" d="M11 1A10 10 0 0 0 1 11a10 10 0 0 0 .01.293A10 10 0 0 1 11 1.5a10 10 0 0 1 9.99 9.707A10 10 0 0 0 21 11 10 10 0 0 0 11 1z"/><path style="opacity:.2" d="M11 3.5a8 8 0 0 0-8 8 8 8 0 0 0 8 8 8 8 0 0 0 7.574-5.447A6.5 6.5 0 0 1 13.5 16.5 6.5 6.5 0 0 1 7 10a6.5 6.5 0 0 1 5.299-6.385A8 8 0 0 0 11 3.5zm2.5 1A5.5 5.5 0 0 0 8 10a5.5 5.5 0 0 0 5.5 5.5A5.5 5.5 0 0 0 19 10a5.5 5.5 0 0 0-5.5-5.5zm0 1A4.5 4.5 0 0 1 18 10a4.5 4.5 0 0 1-4.5 4.5A4.5 4.5 0 0 1 9 10a4.5 4.5 0 0 1 4.5-4.5z"/><path style="fill:#f4f4f7" d="M11 3a8 8 0 0 0-8 8 8 8 0 0 0 8 8 8 8 0 0 0 7.574-5.447A6.5 6.5 0 0 1 13.5 16 6.5 6.5 0 0 1 7 9.5a6.5 6.5 0 0 1 5.299-6.385A8 8 0 0 0 11 3zm2.5 1A5.5 5.5 0 0 0 8 9.5a5.5 5.5 0 0 0 5.5 5.5A5.5 5.5 0 0 0 19 9.5 5.5 5.5 0 0 0 13.5 4zm0 1A4.5 4.5 0 0 1 18 9.5a4.5 4.5 0 0 1-4.5 4.5A4.5 4.5 0 0 1 9 9.5 4.5 4.5 0 0 1 13.5 5z"/></g></svg>

<svg xmlns="http://www.w3.org/2000/svg" width="24" height="24" version="1.1">
 <g transform="translate(1,1)">
  <circle style="opacity:0.2" cx="11" cy="11.5" r="10"/>
  <circle style="fill:#248afd" cx="11" cy="11" r="10"/>
  <path style="opacity:0.2;fill:#f4f4f7" d="M 11,1 A 10,10 0 0 0 1,11 10,10 0 0 0 1.0098,11.293 10,10 0 0 1 11,1.5 10,10 0 0 1 20.99,11.207 10,10 0 0 0 21,11 10,10 0 0 0 11,1 Z"/>
  <path style="opacity:0.2" d="M 11,3.5 A 8,8 0 0 0 3,11.5 8,8 0 0 0 11,19.5 8,8 0 0 0 18.574,14.053 6.5,6.5 0 0 1 13.5,16.5 6.5,6.5 0 0 1 7,10 6.5,6.5 0 0 1 12.299,3.6152 8,8 0 0 0 11,3.5 Z M 13.5,4.5 A 5.5,5.5 0 0 0 8,10 5.5,5.5 0 0 0 13.5,15.5 5.5,5.5 0 0 0 19,10 5.5,5.5 0 0 0 13.5,4.5 Z M 13.5,5.5 A 4.5,4.5 0 0 1 18,10 4.5,4.5 0 0 1 13.5,14.5 4.5,4.5 0 0 1 9,10 4.5,4.5 0 0 1 13.5,5.5 Z"/>
  <path style="fill:#f4f4f7" d="M 11,3 A 8,8 0 0 0 3,11 8,8 0 0 0 11,19 8,8 0 0 0 18.574,13.553 6.5,6.5 0 0 1 13.5,16 6.5,6.5 0 0 1 7,9.5 6.5,6.5 0 0 1 12.299,3.1152 8,8 0 0 0 11,3 Z M 13.5,4 A 5.5,5.5 0 0 0 8,9.5 5.5,5.5 0 0 0 13.5,15 5.5,5.5 0 0 0 19,9.5 5.5,5.5 0 0 0 13.5,4 Z M 13.5,5 A 4.5,4.5 0 0 1 18,9.5 4.5,4.5 0 0 1 13.5,14 4.5,4.5 0 0 1 9,9.5 4.5,4.5 0 0 1 13.5,5 Z"/>
 </g>
</svg>
